icons/account-pin-box-fill.svg

<svg viewBox="0 0 24 24" fill="currentColor" xmlns="http://www.w3.org/2000/svg">
    <path d="M14 21L12 23L10 21H4.99509C3.89323 21 3 20.1074 3 19.0049V4.99509C3 3.89323 3.89262 3 4.99509 3H19.0049C20.1068 3 21 3.89262 21 4.99509V19.0049C21 20.1068 20.1074 21 19.0049 21H14ZM6.35687 18H17.8475C16.5825 16.1865 14.4809 15 12.1022 15C9.72344 15 7.62182 16.1865 6.35687 18ZM12 13C13.933 13 15.5 11.433 15.5 9.5C15.5 7.567 13.933 6 12 6C10.067 6 8.5 7.567 8.5 9.5C8.5 11.433 10.067 13 12 13Z"/>
</svg>

<svg xmlns="http://www.w3.org/2000/svg" viewBox="0 0 24 24">
    <g>
        <path fill="none" d="M0 0h24v24H0z"/>
        <path d="M14 21l-2 2-2-2H4.995A1.995 1.995 0 0 1 3 19.005V4.995C3 3.893 3.893 3 4.995 3h14.01C20.107 3 21 3.893 21 4.995v14.01A1.995 1.995 0 0 1 19.005 21H14zm-7.643-3h11.49a6.992 6.992 0 0 0-5.745-3 6.992 6.992 0 0 0-5.745 3zM12 13a3.5 3.5 0 1 0 0-7 3.5 3.5 0 0 0 0 7z"/>
    </g>
</svg>
